dist/img/contact/email.svg

<svg width="18" height="18" viewBox="0 0 18 18" fill="none" xmlns="http://www.w3.org/2000/svg">
<path d="M15.4571 2.26928C13.8158 0.756426 11.7741 0 9.33596 0C6.77292 0 4.5881 0.859241 2.78516 2.5814C0.982227 4.30355 0.0789223 6.44431 0.0789223 9.00734C0.0789223 11.4639 0.938163 13.5753 2.65297 15.3452C4.37513 17.1151 6.68847 18 9.60034 18C11.3555 18 13.0777 17.6401 14.7668 16.9168C15.3176 16.6818 15.5857 16.0502 15.3617 15.4957C15.1303 14.9229 14.4767 14.6585 13.9076 14.9009C12.4388 15.5324 10.9994 15.8482 9.59667 15.8482C7.36411 15.8482 5.63461 15.1689 4.40817 13.8066C3.18541 12.448 2.57219 10.8507 2.57219 9.01836C2.57219 7.02815 3.22947 5.36842 4.54037 4.0355C5.84759 2.70624 7.45958 2.03794 9.36901 2.03794C11.1279 2.03794 12.615 2.58507 13.8268 3.67931C15.0385 4.77356 15.6444 6.15055 15.6444 7.81028C15.6444 8.94492 15.3653 9.89229 14.8109 10.645C14.2564 11.4015 13.6799 11.776 13.0814 11.776C12.7582 11.776 12.5967 11.6034 12.5967 11.2546C12.5967 10.9718 12.6187 10.6414 12.6591 10.2595L13.3421 4.67442H10.992L10.8415 5.22154C10.2429 4.73317 9.58565 4.48715 8.87329 4.48715C7.74232 4.48715 6.77292 4.9388 5.96876 5.83843C5.16093 6.73807 4.76068 7.89841 4.76068 9.31579C4.76068 10.7001 5.11687 11.8201 5.8329 12.6683C6.54893 13.5202 7.40817 13.9425 8.41429 13.9425C9.31393 13.9425 10.0814 13.5643 10.7203 12.8115C11.2013 13.5349 11.91 13.8947 12.8464 13.8947C14.2234 13.8947 15.4131 13.2962 16.4155 12.0955C17.418 10.8984 17.921 9.45165 17.921 7.75887C17.921 5.61444 17.1022 3.78213 15.4571 2.26928ZM10.0446 10.7185C9.62972 11.2766 9.134 11.5594 8.5575 11.5594C8.1646 11.5594 7.84881 11.3537 7.61013 10.9425C7.36778 10.5312 7.24661 10.0208 7.24661 9.40759C7.24661 8.65116 7.41552 8.04162 7.75334 7.57895C8.09116 7.11628 8.50977 6.88127 9.00915 6.88127C9.44245 6.88127 9.828 7.05386 10.1658 7.40269C10.5036 7.75153 10.6726 8.2142 10.6726 8.79437C10.6689 9.51775 10.4596 10.1567 10.0446 10.7185Z" fill="#ffffff"/>
</svg>

<svg width="18" height="18" fill="none" xmlns="http://www.w3.org/2000/svg"><path d="M15.457 2.27C13.816.755 11.774 0 9.336 0c-2.563 0-4.748.86-6.55 2.581C.981 4.304.078 6.444.078 9.007c0 2.457.86 4.568 2.574 6.338C4.375 17.115 6.688 18 9.6 18c1.755 0 3.478-.36 5.167-1.083.55-.235.819-.867.595-1.421a1.098 1.098 0 00-1.454-.595c-1.47.631-2.909.947-4.311.947-2.233 0-3.962-.68-5.189-2.041-1.223-1.359-1.836-2.956-1.836-4.789 0-1.99.657-3.65 1.968-4.983 1.308-1.328 2.92-1.997 4.83-1.997 1.759 0 3.246.547 4.458 1.641 1.212 1.095 1.817 2.472 1.817 4.131 0 1.135-.279 2.082-.833 2.835-.555.757-1.131 1.131-1.73 1.131-.323 0-.484-.173-.484-.521 0-.283.022-.614.062-.996l.683-5.585h-2.35l-.15.548c-.6-.489-1.256-.735-1.969-.735-1.13 0-2.1.452-2.904 1.351-.808.9-1.208 2.06-1.208 3.478 0 1.384.356 2.504 1.072 3.352.716.852 1.575 1.275 2.581 1.275.9 0 1.667-.379 2.306-1.131.481.723 1.19 1.083 2.126 1.083 1.377 0 2.567-.599 3.57-1.8 1.002-1.197 1.505-2.643 1.505-4.336 0-2.145-.819-3.977-2.464-5.49zm-5.412 8.449c-.415.558-.911.84-1.488.84-.392 0-.708-.205-.947-.616-.242-.412-.363-.922-.363-1.535 0-.757.169-1.366.506-1.829.338-.463.757-.698 1.256-.698.433 0 .819.173 1.157.522.338.349.507.811.507 1.391a3.178 3.178 0 01-.628 1.925z" fill="#fff"/></svg>
